!!!OTL: IHR CHRISTEN FREUET EUCH
!!!ARE: Europa, Mitteleuropa, Deutschland, Schlesien, Glogau
!!!SCT: E1225D
!!!YEM: Copyright 1995, estate of Helmut Schaffrath.
**kern
*ICvox
*Ivox
!! Mixed meters:  3/4; 4/4
*M3/4
*k[b-]
*F:
=1
{4cc
4cc
4cc
=2
8.dd
16cc
4.cc}
{8a
=3
8.b-
16a
4g
4g
=4
4a
4f
4r}
=5
{4cc
4cc
4cc
=6
8.dd
16cc
4.cc}
{8a
=7
8.b-
16a
4g
4g
=8
4a
4f
8r}
{8cc
=9
*M4/4
8cc
8cc
8cc
8cc
8cc
8cc
8cc
8cc
=10
*M3/4
8dd
8cc
4cc
8r}
{8a
=11
*M4/4
8a
8a
8a
8a
8a
8a
8a
8a
=12
8cc
8b-
4a
4r}
==
!!!AGN: Ansinge -, Brauchtums - Lied, Kirchen - Fest, Sommer - Tags - Lied
!!!ONB: ESAC (Essen Associative Code) Database: ERK3
!!!AMT: irregular
!!!AIN: vox
!!!EED: Helmut Schaffrath
!!!EEV: 1.0
*-
